X: 25019
T: Maid That Tends The Goats, The
R: strathspey
M: 4/4
K: Aminor
|:e2 A2 ce d2-|de cd BA (3Bcd|e2 de GA c2|dB ed BA-A2:|
|:g2 ed cd B2-|Bc cd ge ed|eA cg ed d2-|
de cd BA (3Bcd|e2 de A2 GA|cB ed BA-A2:|

